svg/u1f3d2.svg

<svg viewBox="0 0 128 128" xmlns="http://www.w3.org/2000/svg">
  <path d="M65.78,80.6c0,0-6.29,8.38-7.69,10.08c-1.4,1.7-4.99,5.59-6.59,6.59c-1.6,1-2.2,2.79-19.46,2.79 c-13.57,0-18.56-1.5-24.65-1.5c-4.74,0-3.59,8.28-2.99,10.18c0.6,1.9,4.18,8.23,11.08,9.48c6.35,1.16,13.3,0.4,23.16-1.2 c8.18-1.33,15.15-3.1,18.35-5.2c3.06-2.01,6.51-8.18,8.3-10.97s9.08-14.17,9.08-14.17l-0.1-2.3L65.78,80.6z" fill="#FFA828"/>
  <path d="M68.73,80.83C68.56,81.24,56.47,96.77,55.42,98c-1.05,1.23-2.8,2.86-2.51,5.26 c0.29,2.39,2.5,3.03,4.07,2.47c2.8-0.99,3.58-3.29,5.1-5.28c1.04-1.36,12.15-17.34,12.15-17.34L68.73,80.83z" fill="#F08A34"/>
  <polygon points="65.46,81.01 75.74,66.64 83.76,72.34 73.93,87.37 " fill="#5D6365"/>
  <polygon points="72.1,71.71 80.2,77.79 76.73,83.2 68.31,76.98 " fill="#DFE0E0"/>
  <polygon points="74.96,67.68 82.9,73.69 115.3,24.98 108.35,20.32 " fill="#FC2929"/>
  <path d="M114.79,7.67c-1.85,0.14-4.28,4.87-4.37,5.39c-0.18,1,1.71,1.86,1.71,1.86l-4.68,6.71l6.9,4.72 l4.63-6.66c0,0,1.4,0.99,2.12,0.5c0.75-0.51,3.83-4.86,3.65-6.08C124.6,13.11,116.32,7.56,114.79,7.67z" fill="#5E6367"/>
  <path d="M94.07,103.65l-13.01,2.25c0,0-0.39,1.86-0.29,5.77c0.1,3.91,0.68,5.28,0.68,5.28 s2.79,6.08,16.37,6.28c14.75,0.22,17.88-6.18,17.88-6.18s0.6-3.21,0.6-5.65c0-1.57-0.06-5.2-0.4-5.66 C114.93,104.47,94.07,103.65,94.07,103.65z" fill="#9A9A9A"/>
  <path d="M98.01,97.84c-12.02-0.12-17.05,5.08-16.95,8.06c0.07,2.33,4.64,8.39,17.7,8.6 c14.18,0.23,17.17-7.61,17.21-8.75C116,104.42,112.65,97.98,98.01,97.84z" fill="#5E6367"/>
</svg>

<svg viewBox="0 0 128 128" xmlns="http://www.w3.org/2000/svg">
  <defs/>
  <path d="M65.78,80.6 C65.78,80.6 59.49,88.98 58.09,90.68 C56.69,92.38 53.1,96.27 51.5,97.27 C49.9,98.27 49.3,100.06 32.04,100.06 C18.47,100.06 13.48,98.56 7.39,98.56 C2.65,98.56 3.8,106.84 4.4,108.74 C5,110.64 8.58,116.97 15.48,118.22 C21.83,119.38 28.78,118.62 38.64,117.02 C46.82,115.69 53.79,113.92 56.99,111.82 C60.05,109.81 63.5,103.64 65.29,100.85 C67.08,98.06 74.37,86.68 74.37,86.68 L74.27,84.38 L65.78,80.6 Z" fill="#FFA828"/>
  <path d="M68.73,80.83 C68.56,81.24 56.47,96.77 55.42,98 C54.37,99.23 52.62,100.86 52.91,103.26 C53.2,105.65 55.41,106.29 56.98,105.73 C59.78,104.74 60.56,102.44 62.08,100.45 C63.12,99.09 74.23,83.11 74.23,83.11 L68.73,80.83 Z" fill="#F08A34"/>
  <path d="M65.46,81.01 L75.74,66.64 L83.76,72.34 L73.93,87.37 Z" fill="#5D6365"/>
  <path d="M72.1,71.71 L80.2,77.79 L76.73,83.2 L68.31,76.98 Z" fill="#DFE0E0"/>
  <path d="M74.96,67.68 L82.9,73.69 L115.3,24.98 L108.35,20.32 Z" fill="#FC2929"/>
  <path d="M114.79,7.67 C112.94,7.81 110.51,12.54 110.42,13.06 C110.24,14.06 112.13,14.92 112.13,14.92 L107.45,21.63 L114.35,26.35 L118.98,19.69 C118.98,19.69 120.38,20.68 121.1,20.19 C121.85,19.68 124.93,15.33 124.75,14.11 C124.6,13.11 116.32,7.56 114.79,7.67 Z" fill="#5E6367"/>
  <path d="M94.07,103.65 L81.06,105.9 C81.06,105.9 80.67,107.76 80.77,111.67 C80.87,115.58 81.45,116.95 81.45,116.95 C81.45,116.95 84.24,123.03 97.82,123.23 C112.57,123.45 115.7,117.05 115.7,117.05 C115.7,117.05 116.3,113.84 116.3,111.4 C116.3,109.83 116.24,106.2 115.9,105.74 C114.93,104.47 94.07,103.65 94.07,103.65 Z" fill="#9A9A9A"/>
  <path d="M98.01,97.84 C85.99,97.72 80.96,102.92 81.06,105.9 C81.13,108.23 85.7,114.29 98.76,114.5 C112.94,114.73 115.93,106.89 115.97,105.75 C116,104.42 112.65,97.98 98.01,97.84 Z" fill="#5E6367"/>
</svg>
